X:1
T:Title
%%score { ( 1 3 4 ) | 2 }
L:1/8
M:4/4
K:Ab
V:1 treble nm="Grand Piano"
V:3 treble 
V:4 treble 
V:2 bass 
V:1
 z4 z2[Q:1/4=100] [A,C][B,D] | [CE][_C=D][=CE][CA] [Ec][Ec][D_c][E=c] | %2
 [Fd][Fd][FA][=EB] [_Ec]2 [Ec][Ec] | [=Ec][EB][EB][EG] [GB]AAc | %4
[M:9/8] [=DB][DF][DG] [DA] B2- BAB |[M:4/4] ccd[Fc] [Fc][FB][FB][Fc] | %6
 [Fd][Fd][Ge][Fd] [Ec]2 [EA][EG] | [DF][FA][FA]F E[_Ge][Fe][Fd] |[M:7/8] [Ec]2 [DB]2 [CA]3 | %9
[M:1/4] cd |[M:4/4] e6 z2 | F6 z2 | B-[=DB-][DB-][DB-] BA[Dc][DB] | B6 z2 | eeec [Gd]2 [Gd][GB] | %15
 cccA [FB]2 [FA][FB] | ccdc c2 B2 |[M:3/4] [CA]6 |] %18
V:2
 z4 z2 [B,,E,][A,,E,] | [A,,A,][A,,A,][A,,A,][A,,A,] [A,,A,][A,,A,][A,,A,][A,,A,] | %2
 [D,A,][D,A,][D,A,][D,A,] [A,,A,]2 [A,,A,][A,,A,] | %3
 [C,G,][C,G,][C,G,][C,C] [F,C][F,CF][F,CF][F,A,E] | %4
[M:9/8] [B,,B,][B,,A,][B,,G,] [B,,F,] [E,G,D]2- [E,G,D][A,C][A,D] | %5
[M:4/4] [A,E][A,E][F,=A,F][E,A,] [D,B,][D,B,][D,B,][C,A,] | %6
 [B,,B,][B,,B,][E,B,][E,G,] [A,,A,]2 [C,A,][C,A,] | %7
 [D,A,][D,D][D,D][D,A,D] [C,A,][C,A,][D,A,][B,,A,] |[M:7/8] [E,A,]2 [E,G,]2 [A,,A,]3 | %9
[M:1/4][K:treble] [A,E][A,B,E] |[M:4/4] [A,CA][A,C][A,C][K:bass][A,C] [A,C]2 [C,A,][C,A,] | %11
 [D,A,D][D,A,][D,A,][D,A,] [D,A,]2 [D,G,D][D,F,D] | %12
 [B,,F,][B,,F,][B,,F,][B,,F,] [B,,F,]2 [B,,A,][B,,A,] | %13
 [E,G,E][E,G,][E,G,][E,A,] [E,B,]2[K:treble] [A,E][A,B,E] | %14
 [A,CA][A,CA][A,CA][K:bass][A,E] [E,B,]2 [E,B,][E,E] | %15
 [A,EA][A,EA][A,EA][K:bass][A,CE] [D,D]2 [D,A,][D,A,] | %16
 [E,A,E][E,A,E][E,A,F][E,A,E] [E,G,E]2 [E,G,D]2 |[M:3/4] [A,,A,]6 |] %18
V:3
 x8 | x8 | x8 | x8 |[M:9/8] x9 |[M:4/4] x8 | x8 | x8 |[M:7/8] x7 |[M:1/4] x2 | %10
[M:4/4] z AAA z c[EB][EA] | z DDD D2 GA | .=D2 z2 D2 z2 | z EEF G2 cd | x8 | x8 | x8 |[M:3/4] x6 |] %18
V:4
 x8 | x8 | x8 | x8 |[M:9/8] x9 |[M:4/4] x8 | x8 | x8 |[M:7/8] x7 |[M:1/4] x2 |[M:4/4] z4 A2 z2 | %11
 x8 | x8 | x8 | x8 | x8 | x8 |[M:3/4] x6 |] %18

